images/vk-icon.svg

<svg width="16" height="16" viewBox="0 0 16 16" fill="none" xmlns="http://www.w3.org/2000/svg">
<g clip-path="url(#clip0_32_42)">
<path fill-rule="evenodd" clip-rule="evenodd" d="M15.6333 3.96537C15.744 3.60137 15.6333 3.33337 15.1033 3.33337H13.3533C12.908 3.33337 12.7027 3.56471 12.5913 3.82004C12.5913 3.82004 11.7013 5.95071 10.4407 7.33471C10.0327 7.73604 9.84733 7.86338 9.62467 7.86338C9.51333 7.86338 9.346 7.73604 9.346 7.37138V3.96537C9.346 3.52804 9.22333 3.33337 8.85267 3.33337H6.10067C5.82267 3.33337 5.65533 3.53604 5.65533 3.72871C5.65533 4.14271 6.286 4.23871 6.35067 5.40404V7.93604C6.35067 8.49138 6.24867 8.59204 6.026 8.59204C5.43267 8.59204 3.98933 6.45137 3.13267 4.00204C2.96667 3.52537 2.79867 3.33337 2.35133 3.33337H0.6C0.1 3.33337 0 3.56471 0 3.82004C0 4.27471 0.593333 6.53338 2.76333 9.52071C4.21 11.5607 6.24667 12.6667 8.102 12.6667C9.21467 12.6667 9.352 12.4214 9.352 11.998V10.456C9.352 9.96471 9.45733 9.86671 9.81 9.86671C10.07 9.86671 10.5147 9.99471 11.5533 10.978C12.74 12.144 12.9353 12.6667 13.6033 12.6667H15.3533C15.8533 12.6667 16.104 12.4214 15.96 11.936C15.8013 11.4534 15.2347 10.7527 14.4833 9.92138C14.0753 9.44804 13.4633 8.93804 13.2773 8.68271C13.018 8.35538 13.092 8.20938 13.2773 7.91804C13.2773 7.91804 15.4107 4.96737 15.6327 3.96537" fill="#89725B"/>
</g>
<defs>
<clipPath id="clip0_32_42">
<rect width="16" height="16" fill="white"/>
</clipPath>
</defs>
</svg>

<svg xmlns="http://www.w3.org/2000/svg" width="16" height="16" fill="none"><g clip-path="url(#a)"><path fill="#89725B" fill-rule="evenodd" d="M15.633 3.965c.111-.364 0-.632-.53-.632h-1.75c-.445 0-.65.232-.762.487 0 0-.89 2.13-2.15 3.515-.408.401-.594.528-.816.528-.112 0-.279-.127-.279-.492V3.965c0-.437-.123-.632-.493-.632H6.1c-.278 0-.446.203-.446.396 0 .414.631.51.696 1.675v2.532c0 .555-.102.656-.325.656-.593 0-2.037-2.14-2.893-4.59-.166-.477-.334-.669-.782-.669H.6c-.5 0-.6.232-.6.487 0 .455.593 2.713 2.763 5.7 1.447 2.04 3.484 3.147 5.339 3.147 1.113 0 1.25-.246 1.25-.669v-1.542c0-.491.105-.59.458-.59.26 0 .705.129 1.743 1.112 1.187 1.166 1.382 1.689 2.05 1.689h1.75c.5 0 .751-.246.607-.731-.159-.483-.725-1.183-1.477-2.015-.408-.473-1.02-.983-1.206-1.238-.259-.328-.185-.474 0-.765 0 0 2.134-2.95 2.356-3.953" clip-rule="evenodd"/></g><defs><clipPath id="a"><path fill="#fff" d="M0 0h16v16H0z"/></clipPath></defs></svg>
